X: 12814
T: Feed The Ducks
R: jig
M: 6/8
K: Gmajor
D2G GAB|AGD EGA|~G3 eGd|GAB AGE|
D2 G GAB|AGD EGA|G2 e dBG|1 ABA AGE:|2 ABA GBd||
e3 edB|def g2e|dBG DEC|‘B,DG Bcd|
e3 edB|def g2e|dGA Bcd|c3 Bcd|
e3 edB|def g2e|dBG DEC|‘B,DG BGA|
~G3 eGd|~G3 eGd|~G3 eGd|GAB AGE||

